X: 2
T: reel de Beloeil
C: Edouard Picard
S: Handout at Roaring Jelly practice 2016-11
R: reel
Z: 2008 John Chambers <jc:trillian.mit.edu>
M: C|
L: 1/8
K: D
|:\
"D"D3D "(A7)"DFEG | "D"FDDD F2DF | "D"AdcB "(A7)"AGFE | "D"DFAd "A7"BGEC |
"D"D3D "(A7)"DFEG | "D"FDDD F2DF | "D"AdcB "(G)"AGFE | "A7"DdAF [1 "D"D2A,2 :|2 "D"D2G2 ||
|:\
"D"Fddd Fddd | "G"Gddd Gddd | "A7"Aeee Aeec | "D"dfed "A7"cBAG |
"D"Fddd Fddd | "G"Gddd Gddd | "A7"Aeee Aeec | "D"df"A7"ec [1 "D"dBAG :|2 "D"d4 |]
